argon/symbolic/status/weather-severe-alert-symbolic.svg

<?xml version="1.0" encoding="UTF-8" standalone="no"?>
<svg
   height="16"
   width="16.001"
   version="1.1"
   id="svg6"
   sodipodi:docname="weather-severe-alert-symbolic.svg"
   inkscape:version="1.4 (e7c3feb100, 2024-10-09)"
   xmlns:inkscape="http://www.inkscape.org/namespaces/inkscape"
   xmlns:sodipodi="http://sodipodi.sourceforge.net/DTD/sodipodi-0.dtd"
   xmlns="http://www.w3.org/2000/svg"
   xmlns:svg="http://www.w3.org/2000/svg">
  <defs
     id="defs10" />
  <sodipodi:namedview
     pagecolor="#333333"
     bordercolor="#666666"
     borderopacity="1"
     objecttolerance="10"
     gridtolerance="10"
     guidetolerance="10"
     inkscape:pageopacity="0"
     inkscape:pageshadow="2"
     inkscape:window-width="1920"
     inkscape:window-height="1011"
     id="namedview8"
     showgrid="false"
     inkscape:zoom="19.047689"
     inkscape:cx="4.7774825"
     inkscape:cy="4.8299823"
     inkscape:window-x="0"
     inkscape:window-y="0"
     inkscape:window-maximized="1"
     inkscape:current-layer="layer1"
     inkscape:document-rotation="0"
     inkscape:showpageshadow="2"
     inkscape:pagecheckerboard="0"
     inkscape:deskcolor="#d1d1d1" />
  <g
     inkscape:groupmode="layer"
     id="layer1"
     inkscape:label="Icon">
    <path
       id="path2"
       style="line-height:normal;-inkscape-font-specification:sans-serif;text-indent:0;text-align:start;text-decoration-line:none;text-transform:none;fill:#000000;marker:none"
       d="m 8.640625,0.66796875 c -2.158,0.002 -3.9931406,1.33142185 -4.8691406,3.23242185 l -0.060547,0.1289063 -0.1386719,0.00977 C 1.5782656,4.1830625 0,5.9098125 0,8.0078125 0,10.200813 1.7158906,12 3.8378906,12 H 6 V 11 H 3.8378906 C 2.2808906,11 1,9.6788125 1,8.0078125 1,6.4108125 2.1845313,5.1421562 3.6445312,5.0351562 L 4.3671875,4.984375 4.6777344,4.3222656 v -0.00391 c 0.729,-1.58 2.2129375,-2.6493907 3.9609375,-2.6503906 2.3680001,0.002 4.2912971,1.9522656 4.4042971,4.4472656 V 6.125 l 0.05078,0.7753906 0.703125,0.296875 a 1.944,1.944 0 0 1 1.195313,1.8144532 C 15.002187,10.125719 14.146094,11 13.121094,11 H 9.9980469 v 1 h 3.1230471 c 1.591,0 2.876953,-1.350281 2.876953,-2.9882812 A 2.958,2.958 0 0 0 14.193359,6.2773438 L 14.056641,6.21875 14.046875,6.0703125 c -0.136,-2.993 -2.486297,-5.40034375 -5.4042969,-5.40234375 z M 7.0976562,6 7.296875,12.533203 H 8.7167969 L 8.9160156,6 Z m 0.9101563,7.556641 c -0.7386363,0 -1.2226562,0.511896 -1.2226563,1.236328 0,0.696022 0.48402,1.207031 1.2226563,1.207031 0.7244319,0 1.2070313,-0.511009 1.2070313,-1.207031 0,-0.724432 -0.4825994,-1.236328 -1.2070313,-1.236328 z" />
  </g>
</svg>

<?xml version="1.0" encoding="UTF-8" standalone="no"?>
<svg
   height="16"
   width="16.001"
   version="1.1"
   id="svg6"
   sodipodi:docname="weather-severe-alert-symbolic.symbolic.svg"
   xmlns:inkscape="http://www.inkscape.org/namespaces/inkscape"
   xmlns:sodipodi="http://sodipodi.sourceforge.net/DTD/sodipodi-0.dtd"
   xmlns="http://www.w3.org/2000/svg"
   xmlns:svg="http://www.w3.org/2000/svg">
  <defs
     id="defs10" />
  <sodipodi:namedview
     pagecolor="#333333"
     bordercolor="#666666"
     borderopacity="1"
     objecttolerance="10"
     gridtolerance="10"
     guidetolerance="10"
     inkscape:pageopacity="0"
     inkscape:pageshadow="2"
     inkscape:window-width="1836"
     inkscape:window-height="1016"
     id="namedview8"
     showgrid="false"
     inkscape:zoom="19.047689"
     inkscape:cx="4.5246011"
     inkscape:cy="5.4448016"
     inkscape:window-x="2004"
     inkscape:window-y="27"
     inkscape:window-maximized="1"
     inkscape:current-layer="layer1"
     inkscape:document-rotation="0"
     inkscape:showpageshadow="2"
     inkscape:pagecheckerboard="0"
     inkscape:deskcolor="#d1d1d1" />
  <g
     inkscape:groupmode="layer"
     id="layer1"
     inkscape:label="Icon">
    <g
       id="g834">
      <path
         color="#000"
         d="M8.64.668C6.482.67 4.648 1.999 3.772 3.9l-.061.13-.139.01C1.578 4.184 0 5.91 0 8.008 0 10.201 1.716 12 3.838 12H6v-1H3.838C2.281 11 1 9.679 1 8.008c0-1.597 1.184-2.866 2.644-2.973l.723-.05.31-.663v-.004c.729-1.58 2.213-2.649 3.961-2.65 2.368.002 4.292 1.952 4.405 4.447v.01l.05.776.704.296a1.944 1.944 0 011.195 1.815c.01 1.114-.846 1.988-1.871 1.988H9.998v1h3.123c1.591 0 2.877-1.35 2.877-2.988a2.958 2.958 0 00-1.805-2.735l-.136-.058-.01-.149C13.911 3.077 11.56.67 8.642.668z"
         fill="gray"
         font-family="sans-serif"
         font-weight="400"
         overflow="visible"
         style="line-height:normal;-inkscape-font-specification:sans-serif;text-indent:0;text-align:start;text-decoration-line:none;text-transform:none;marker:none;fill:#000000"
         id="path2" />
      <path
         class="error"
         color="#000"
         d="M7.291 6v2.662c0 .793.03 1.517.086 2.168.057.642.128 1.284.213 1.926h.82c.085-.642.157-1.284.213-1.926.057-.651.086-1.375.086-2.168V6zm.71 8.102c-.294 0-.524.094-.694.283a.965.965 0 00-.256.666c0 .255.086.477.256.666.17.189.4.283.693.283.293 0 .524-.094.694-.283a.965.965 0 00.255-.666.965.965 0 00-.255-.666c-.17-.19-.401-.283-.694-.283z"
         fill="#da1636"
         font-family="sans-serif"
         font-weight="400"
         overflow="visible"
         style="line-height:normal;font-variant-ligatures:none;font-variant-position:normal;font-variant-caps:normal;font-variant-numeric:normal;font-variant-alternates:normal;font-feature-settings:normal;text-indent:0;text-align:start;text-decoration-line:none;text-decoration-style:solid;text-decoration-color:#000;text-transform:none;shape-padding:0;isolation:auto;mix-blend-mode:normal;marker:none;fill:#000000;fill-opacity:1"
         id="path4" />
    </g>
  </g>
</svg>
